X: 2
T: Saddle The Pony
R: jig
M: 6/8
L: 1/8
K: Gmaj
D|:GBA G2B|def gdB|GBA G2B|AFD D2F|GBA G2B|def g2f|ecA dBG|1 FEF G2 D:|2 FEF G2 B|||:d2d dcd|def gfe|d2d dcd|AFD D2c|d2d dcd|def g2f|ecA dBG|1 FEF G2 B:|2 FEF G2 D||


Tune 307	Setting 13071

